X:1
T:Title
%%score { ( 1 3 ) | ( 2 4 ) }
L:1/8
M:6/4
K:Db
V:1 treble nm="Grand Piano"
V:3 treble 
V:2 bass 
V:4 bass 
V:1
 z6 z4[Q:1/4=114] F2 | F6 E2 F2 G2 | A6 B4 B2 | A2 [G,CE]2 [A,CF]2 [B,CG]2 [CF]2 [A,CE]2 | A6 z6 | %5
 z6 .[Fd]6 | A6- A4 A2 | e4 e2 =d4 d2 | e4 c2 B4 A2 | d12 | [Fd]6- [Fd]4 F2 | A12 | A6- A4 F2 | %13
 A12 |[M:5/4] [DA]2- [DA]2- [DA]6 |] %15
V:2
 z6 z4 [D,A,D]2 | [D,A,D]6 [G,A,C]2 [F,A,C]2 [E,A,C]2 | [F,A,D]6 [_F,=G,D]4 [F,G,C]2 | %3
 [E,G,C]2 A,,2 A,,2 A,,2 A,2 G,2 | z4 D2 F,2 F,2 F,2 | E,4 E,2 z2 E2 E,2 | [A,C]6- [A,C]4 [A,CG]2 | %7
 [A,CG]4 [A,CG]2 [A,_CF]4 [A,CF]2 | [A,CG]4 [A,EG]2 [A,DG]4 [A,CG]2 | D6- D3/2 z/ C2 B,2 | %10
 [D,A,]12 | z6 .E,6 | [D,F,D]12 | z2 A,,2- [A,,F,]2 z2 A,2 [A,,G,]2 | %14
[M:5/4] [D,F,]2- [D,F,]2- [D,F,]6 |] %15
V:3
 x12 | x12 | x12 | x12 | [A,D]4 F2 [=DAB]2 [DAB]2 [DAB]2 | [EAc]4 [DAB]2 =G2- [Gc]2 [DGB]2 | x12 | %7
 x12 | x12 | z6 B2 A2 G2 | x12 | z4 D2 C2 D2 [EA]2 | x12 | z2 C2 D2 [B,G]2 F2 [EA]2 |[M:5/4] x10 |] %15
V:4
 x12 | x12 | x12 | x12 | F,6 z6 | z6 .E,6 | x12 | x12 | x12 | [B,F]6 .G,6 | x12 | %11
 z4 [A,,F,]2 A,,2- [A,,F,]2 [A,,G,]2 | x12 | z2 .E,4 .A,,6 |[M:5/4] x10 |] %15

